icons/lines/global-edit.svg

<svg xmlns="http://www.w3.org/2000/svg" width="24" height="24" viewBox="0 0 24 24" fill="none" stroke="currentColor" stroke-width="2" stroke-linecap="round" stroke-linejoin="round" >
  <path d="M22 12C22 6.48 17.52 2 12 2C6.48 2 2 6.48 2 12C2 17.52 6.48 22 12 22"/>
  <path d="M8.0001 3H9.0001C7.0501 8.84 7.0501 15.16 9.0001 21H8.0001"/>
  <path d="M15 3C15.97 5.92 16.46 8.96 16.46 12"/>
  <path d="M3 16V15C5.92 15.97 8.96 16.46 12 16.46"/>
  <path d="M3 8.99998C8.84 7.04998 15.16 7.04998 21 8.99998"/>
  <path d="M19.21 15.74L15.67 19.2801C15.53 19.4201 15.4 19.68 15.37 19.87L15.18 21.22C15.11 21.71 15.45 22.05 15.94 21.98L17.29 21.79C17.48 21.76 17.75 21.63 17.88 21.49L21.42 17.95C22.03 17.34 22.32 16.63 21.42 15.73C20.53 14.84 19.82 15.13 19.21 15.74Z" stroke-miterlimit="10"/>
  <path d="M18.7002 16.25C19.0002 17.33 19.8402 18.17 20.9202 18.47" stroke-miterlimit="10"/>
  </svg>

<svg xmlns="http://www.w3.org/2000/svg" width="24" height="24" viewBox="0 0 24 24" fill="none" stroke="currentColor" stroke-width="2" stroke-linecap="round" stroke-linejoin="round">
  <path d="M15 3a28.6 28.6 0 0 1 1.46 9" />
  <path d="M15.67 19.28a1.23 1.23 0 0 0-.3.59l-.19 1.35c-.07.49.27.83.76.76l1.35-.19a1.2 1.2 0 0 0 .59-.3l3.54-3.54c.61-.61.9-1.32 0-2.22-.89-.89-1.6-.6-2.21.01z" />
  <path d="M18.7 16.25a3.19 3.19 0 0 0 2.22 2.22" />
  <path d="M22 12a10 10 0 1 0-10 10" />
  <path d="M3 16v-1a28.6 28.6 0 0 0 9 1.46" />
  <path d="M3 9a28.42 28.42 0 0 1 18 0" />
  <path d="M8 3h1a28.42 28.42 0 0 0 0 18H8" />
</svg>
